X: 24
T:Wee'l All Lie Together. BF11.24
M:9/8
L:1/8
Q:120
C:Browne A hand
S:MS11,c1800.,Browne Coll.,Lakes
R:Slip Jig
O:England
A:Lakes
Z:vmp.Chris Partington
K:G
G2Bd2Bc2A|G2Bd2B cBA|G2Bd2ec3|AcA F2A cBA:|!
|:G3D2EF2D|G3D2B cBA|G3D2EF2G|ABA F2A cBA:|]
